X:1
T:Jack Pudding
C:John Playford, The English Dancing Master, 1651
N:arr Paul Butler. Matches Pile 46
P:AABB x 3
M:6/4
L:1/8
K:A minor
P:A
E2 | "Am"A4A2 "Em"B4G2 | "Am"c2A4 "G"d4B2 | "C"e2c4 "Em"B4A2 |  [1 "Am"A6 A4E2 :|]  [2 "Am"A6 A4a2 ::\
P:B
"C"g2e4 "Dm"f4d2 | "C"e2c4 "G"d4B2 | 
"Am"c2A4 "Em"B2G4 | "C"c6 c4c2 | "G"d2B4 "Em"e4B2 | "E"^G2E4 "C"c4d2 | "Am"e2c4 "G"d2B4 |  [1 "Am"A6 A4a2 :|]  [2 "Am"A6 A4 |]

